X:310
T: Reel of Darragh
T: R\'il Dharach
S: B.Breathnach:"Ceol Rince na hEireann" IV/149
Z: B.Black
L: 1/8
M: 4/4
R: reel
K: D
E|FEDF EB, B,2|DEFA BAFA|d2 fd (3ddd ed|(3BBB dB AFEF|
FEDF EB, B,2|DEFA BAFA|dfef fedB|AFEF (3DDD D :|
A|d2 fd Adfd|adfd eB B2|dfBd Ad FA|EFAc BFAB|
(3ddd fd Adfd|adfd eB B2|dfef fedB|AFEF (3DDD D :|
